poi/svg/2501.svg

<?xml version="1.0" encoding="UTF-8" standalone="no"?>
<svg
   xmlns:dc="http://purl.org/dc/elements/1.1/"
   xmlns:cc="http://creativecommons.org/ns#"
   xmlns:rdf="http://www.w3.org/1999/02/22-rdf-syntax-ns#"
   xmlns:svg="http://www.w3.org/2000/svg"
   xmlns="http://www.w3.org/2000/svg"
   xmlns:sodipodi="http://sodipodi.sourceforge.net/DTD/sodipodi-0.dtd"
   xmlns:inkscape="http://www.inkscape.org/namespaces/inkscape"
   inkscape:version="1.0 (4035a4fb49, 2020-05-01)"
   sodipodi:docname="2501.svg"
   id="svg20"
   version="1.2"
   viewBox="0 0 42.519639 42.519639"
   height="14.999999mm"
   width="14.999999mm">
  <metadata
     id="metadata24">
    <rdf:RDF>
      <cc:Work
         rdf:about="">
        <dc:format>image/svg+xml</dc:format>
        <dc:type
           rdf:resource="http://purl.org/dc/dcmitype/StillImage" />
        <dc:title>Qt SVG Document</dc:title>
      </cc:Work>
    </rdf:RDF>
  </metadata>
  <sodipodi:namedview
     inkscape:current-layer="svg20"
     inkscape:window-maximized="0"
     inkscape:window-y="0"
     inkscape:window-x="0"
     inkscape:cy="28.346482"
     inkscape:cx="28.346482"
     inkscape:zoom="5.8410537"
     showgrid="false"
     id="namedview22"
     inkscape:window-height="480"
     inkscape:window-width="1034"
     inkscape:pageshadow="2"
     inkscape:pageopacity="0"
     guidetolerance="10"
     gridtolerance="10"
     objecttolerance="10"
     borderopacity="1"
     bordercolor="#666666"
     pagecolor="#ffffff" />
  <title
     id="title2">Qt SVG Document</title>
  <desc
     id="desc4">Generated with Qt</desc>
  <defs
     id="defs6" />
  <g
     transform="translate(5.25984,5.25984)"
     id="g18"
     stroke-linejoin="bevel"
     stroke-linecap="square"
     fill-rule="evenodd"
     stroke-width="1"
     stroke="#000000"
     fill="none">
    <g
       id="g10"
       font-style="normal"
       font-weight="400"
       font-size="7.8px"
       font-family="'MS Shell Dlg 2'"
       stroke="none"
       fill-opacity="1"
       fill="#489174">
      <path
         id="path8"
         d="M 37.2598,16 C 37.2598,27.7415 27.7415,37.2598 16,37.2598 4.25851,37.2598 -5.25984,27.7415 -5.25984,16 -5.25984,4.25851 4.25851,-5.25984 16,-5.25984 27.7415,-5.25984 37.2598,4.25851 37.2598,16"
         fill-rule="evenodd"
         vector-effect="non-scaling-stroke" />
    </g>
    <g
       id="g14"
       font-style="normal"
       font-weight="400"
       font-size="7.8px"
       font-family="'MS Shell Dlg 2'"
       transform="translate(17.1339,12.0315)"
       stroke="none"
       fill-opacity="1"
       fill="#ffffff">
      <path
         id="path12"
         d="M 6.79395,-3.93164 C 6.59798,-3.73568 6.5,-3.47673 6.5,-3.15479 v 2.309575 c 0,0.209961 -0.06999,0.391927 -0.20996,0.545899 C 6.15007,-0.145345 5.9891,0.0016276 5.80713,0.141602 L 5.17725,0.540527 5.26123,1.7793 H 4.73633 C 4.79232,2.70313 4.93579,3.59546 5.16675,4.4563 5.39771,5.31714 5.71615,6.34945 6.12207,7.55322 6.43001,8.43506 6.54899,9.2854 6.479,10.1042 6.40902,10.9231 6.15706,11.6335 5.72314,12.2354 5.06527,13.1452 4.17643,13.6001 3.05664,13.6001 H 1.69189 v 1.5957 H 6.5 v 1.7217 H -9.05811 v -1.7217 h 1.19678 V -6.09424 c 0,-0.27995 0.09448,-0.5144 0.28345,-0.70337 0.18896,-0.18896 0.42342,-0.28344 0.70337,-0.28344 h 7.579588 c 0.279948,0 0.514402,0.09448 0.703372,0.28344 0.18896,0.18897 0.28344,0.42342 0.28344,0.70337 V 12.5713 h 1.36475 c 0.76986,0 1.38574,-0.315 1.84766,-0.9448 C 5.61816,10.6606 5.68815,9.40088 5.11426,7.84717 4.72233,6.64339 4.40389,5.57609 4.15894,4.64526 3.91398,3.71444 3.76351,2.75911 3.70752,1.7793 H 3.35059 L 3.49756,-2 c 0,-0.34993 0.15747,-0.65788 0.47241,-0.92383 0.31494,-0.26595 0.57039,-0.47591 0.76636,-0.62988 L 8.78857,-6.64014 9.2085,-5.98926 6.79395,-3.93164 M 0.306152,-5.31738 c 0,-0.33594 -0.167968,-0.50391 -0.503906,-0.50391 H -5.97168 c -0.11198,0 -0.21696,0.04899 -0.31494,0.14697 -0.09798,0.09799 -0.14697,0.21696 -0.14697,0.35694 v 4.388181 c 0,0.139974 0.04899,0.262451 0.14697,0.367431 0.09798,0.104981 0.20296,0.157471 0.31494,0.157471 h 5.773926 c 0.335938,0 0.503906,-0.174967 0.503906,-0.524902 V -5.31738 M 5.17725,-0.719238 C 5.26123,-0.747233 5.33822,-0.775228 5.4082,-0.803223 5.47819,-0.831217 5.54118,-0.859212 5.59717,-0.887207 5.70915,-0.943197 5.81763,-1.01318 5.92261,-1.09717 6.02759,-1.18115 6.08008,-1.29313 6.08008,-1.43311 v -1.42773 l -0.27295,0.16797 c -0.05599,0.05599 -0.11898,0.12248 -0.18897,0.19946 -0.06998,0.07699 -0.11897,0.17147 -0.14697,0.28345 -0.11198,0.27995 -0.19596,0.59489 -0.25195,0.94482 -0.028,0.08399 -0.04199,0.265954 -0.04199,0.545902"
         fill-rule="evenodd"
         vector-effect="none" />
    </g>
    <g
       id="g16"
       font-style="normal"
       font-weight="400"
       font-size="7.8px"
       font-family="'MS Shell Dlg 2'"
       stroke="none"
       fill-opacity="1"
       fill="#489174" />
  </g>
</svg>

<?xml version="1.0" encoding="UTF-8" standalone="no"?>
<svg width="11.2889mm" height="11.2889mm"
 viewBox="0 0 32 32"
 xmlns="http://www.w3.org/2000/svg" xmlns:xlink="http://www.w3.org/1999/xlink"  version="1.2" baseProfile="tiny">
<title>Qt SVG Document</title>
<desc>Generated with Qt</desc>
<defs>
</defs>
<g fill="none" stroke="black" stroke-width="1" fill-rule="evenodd" stroke-linecap="square" stroke-linejoin="bevel" >

<g fill="#489174" fill-opacity="1" stroke="none" transform="matrix(1,0,0,1,0,0)"
font-family="MS Shell Dlg 2" font-size="7.8" font-weight="400" font-style="normal" 
>
<path vector-effect="non-scaling-stroke" fill-rule="evenodd" d="M37.2598,16 C37.2598,27.7415 27.7415,37.2598 16,37.2598 C4.25851,37.2598 -5.25984,27.7415 -5.25984,16 C-5.25984,4.25851 4.25851,-5.25984 16,-5.25984 C27.7415,-5.25984 37.2598,4.25851 37.2598,16 "/>
</g>

<g fill="#ffffff" fill-opacity="1" stroke="none" transform="matrix(1,0,0,1,17.1339,12.0315)"
font-family="MS Shell Dlg 2" font-size="7.8" font-weight="400" font-style="normal" 
>
<path vector-effect="none" fill-rule="evenodd" d="M6.79395,-3.93164 C6.59798,-3.73568 6.5,-3.47673 6.5,-3.15479 L6.5,-0.845215 C6.5,-0.635254 6.43001,-0.453288 6.29004,-0.299316 C6.15007,-0.145345 5.9891,0.0016276 5.80713,0.141602 L5.17725,0.540527 L5.26123,1.7793 L4.73633,1.7793 C4.79232,2.70313 4.93579,3.59546 5.16675,4.4563 C5.39771,5.31714 5.71615,6.34945 6.12207,7.55322 C6.43001,8.43506 6.54899,9.2854 6.479,10.1042 C6.40902,10.9231 6.15706,11.6335 5.72314,12.2354 C5.06527,13.1452 4.17643,13.6001 3.05664,13.6001 L1.69189,13.6001 L1.69189,15.1958 L6.5,15.1958 L6.5,16.9175 L-9.05811,16.9175 L-9.05811,15.1958 L-7.86133,15.1958 L-7.86133,-6.09424 C-7.86133,-6.37419 -7.76685,-6.60864 -7.57788,-6.79761 C-7.38892,-6.98657 -7.15446,-7.08105 -6.87451,-7.08105 L0.705078,-7.08105 C0.985026,-7.08105 1.21948,-6.98657 1.40845,-6.79761 C1.59741,-6.60864 1.69189,-6.37419 1.69189,-6.09424 L1.69189,12.5713 L3.05664,12.5713 C3.8265,12.5713 4.44238,12.2563 4.9043,11.6265 C5.61816,10.6606 5.68815,9.40088 5.11426,7.84717 C4.72233,6.64339 4.40389,5.57609 4.15894,4.64526 C3.91398,3.71444 3.76351,2.75911 3.70752,1.7793 L3.35059,1.7793 L3.49756,-2 C3.49756,-2.34993 3.65503,-2.65788 3.96997,-2.92383 C4.28491,-3.18978 4.54036,-3.39974 4.73633,-3.55371 L8.78857,-6.64014 L9.2085,-5.98926 L6.79395,-3.93164 M0.306152,-5.31738 C0.306152,-5.65332 0.138184,-5.82129 -0.197754,-5.82129 L-5.97168,-5.82129 C-6.08366,-5.82129 -6.18864,-5.7723 -6.28662,-5.67432 C-6.3846,-5.57633 -6.43359,-5.45736 -6.43359,-5.31738 L-6.43359,-0.929199 C-6.43359,-0.789225 -6.3846,-0.666748 -6.28662,-0.561768 C-6.18864,-0.456787 -6.08366,-0.404297 -5.97168,-0.404297 L-0.197754,-0.404297 C0.138184,-0.404297 0.306152,-0.579264 0.306152,-0.929199 L0.306152,-5.31738 M5.17725,-0.719238 C5.26123,-0.747233 5.33822,-0.775228 5.4082,-0.803223 C5.47819,-0.831217 5.54118,-0.859212 5.59717,-0.887207 C5.70915,-0.943197 5.81763,-1.01318 5.92261,-1.09717 C6.02759,-1.18115 6.08008,-1.29313 6.08008,-1.43311 L6.08008,-2.86084 L5.80713,-2.69287 C5.75114,-2.63688 5.68815,-2.57039 5.61816,-2.49341 C5.54818,-2.41642 5.49919,-2.32194 5.47119,-2.20996 C5.35921,-1.93001 5.27523,-1.61507 5.21924,-1.26514 C5.19124,-1.18115 5.17725,-0.999186 5.17725,-0.719238 "/>
</g>

<g fill="#489174" fill-opacity="1" stroke="none" transform="matrix(1,0,0,1,0,0)"
font-family="MS Shell Dlg 2" font-size="7.8" font-weight="400" font-style="normal" 
>
</g>
</g>
</svg>
